packages/core/src/svgs/tetu.svg

<svg width="24" height="24" viewBox="0 0 24 24" fill="none" xmlns="http://www.w3.org/2000/svg">
<g clip-path="url(#clip0_31_19635)">
<path d="M0 0H24V24H0V0Z" fill="#F0F3FA"/>
<path d="M12 11.1429C12.682 11.1429 13.3361 10.8719 13.8183 10.3897C14.3005 9.90747 14.5714 9.25341 14.5714 8.57143C14.5714 7.88944 14.3005 7.23539 13.8183 6.75315C13.3361 6.27092 12.682 6 12 6C11.318 6 10.664 6.27092 10.1817 6.75315C9.69951 7.23539 9.42859 7.88944 9.42859 8.57143C9.42859 9.25341 9.69951 9.90747 10.1817 10.3897C10.664 10.8719 11.318 11.1429 12 11.1429Z" fill="#04A8F0"/>
<path d="M11.9957 12.4286C10.8866 12.4198 9.82484 11.978 9.03697 11.1973C8.24911 10.4167 7.79751 9.35902 7.77854 8.25005C7.87711 7.15719 6.89996 7.15719 6.63425 7.45291L6.57425 7.51291C5.65118 8.64798 5.14586 10.0656 5.14282 11.5286C5.14282 12.8572 6.45854 13.7143 7.85568 13.7143H16.1443C17.5285 13.7143 18.8571 12.8658 18.8571 11.5286C18.8522 10.0387 18.3244 8.59774 17.3657 7.45719C17.0914 7.15719 16.1143 7.15719 16.2128 8.25005C16.2128 10.4743 14.3271 12.4286 11.9957 12.4286Z" fill="#686DF1"/>
<path d="M12.7714 18.8956L14.8285 16.007C15.2614 15.407 14.82 14.5713 14.0571 14.5713H9.94282C9.17996 14.5713 8.73853 15.4027 9.17139 16.007L11.2285 18.8956C11.3173 19.0169 11.4334 19.1156 11.5674 19.1836C11.7014 19.2517 11.8496 19.2871 12 19.2871C12.1503 19.2871 12.2985 19.2517 12.4325 19.1836C12.5666 19.1156 12.6827 19.0169 12.7714 18.8956Z" fill="#04A8F0"/>
</g>
<defs>
<clipPath id="clip0_31_19635">
<rect width="24" height="24" fill="white"/>
</clipPath>
</defs>
</svg>

<svg xmlns="http://www.w3.org/2000/svg" width="24" height="24" fill="none" viewBox="0 0 24 24"><g clip-path="url(#a)"><path fill="#F0F3FA" d="M0 0h24v24H0z"/><path fill="#04A8F0" d="M12 11.143A2.572 2.572 0 1 0 12 6a2.572 2.572 0 0 0 0 5.143"/><path fill="#686DF1" d="M11.996 12.429A4.25 4.25 0 0 1 7.779 8.25c.098-1.093-.879-1.093-1.145-.797l-.06.06a6.4 6.4 0 0 0-1.431 4.016c0 1.328 1.316 2.185 2.713 2.185h8.288c1.385 0 2.713-.848 2.713-2.185a6.36 6.36 0 0 0-1.491-4.072c-.275-.3-1.252-.3-1.153.793 0 2.224-1.886 4.179-4.217 4.179"/><path fill="#04A8F0" d="m12.771 18.896 2.057-2.889c.433-.6-.008-1.436-.77-1.436H9.942c-.763 0-1.204.832-.772 1.436l2.058 2.889a.957.957 0 0 0 1.542 0"/></g><defs><clipPath id="a"><path fill="#fff" d="M0 0h24v24H0z"/></clipPath></defs></svg>
